<?xml version="1.0" encoding="UTF-8"?>
<map version="1.10" tiledversion="1.10.1" orientation="orthogonal" renderorder="right-down" width="32" height="30" tilewidth="8" tileheight="8" infinite="0" nextlayerid="2" nextobjectid="1">
 <editorsettings>
  <export target="../level_csvs/more_games_screen.csv" format="csv"/>
 </editorsettings>
 <tileset firstgid="1" source="../castle_chrset.tsx"/>
 <layer id="1" name="Tile Layer 1" width="32" height="30">
  <data encoding="csv">
1,1,1,1,1,1,1,1,1,1,1,1,1,1,1,1,1,1,1,1,1,1,1,1,1,1,1,1,1,1,1,1,
1,1,1,1,1,1,1,1,1,1,1,1,1,1,1,1,1,1,1,1,1,1,1,1,1,1,1,1,1,1,1,1,
1,1,1,1,1,1,1,1,1,1,1,1,1,1,1,1,1,1,1,1,1,1,1,1,1,1,1,1,1,1,1,1,
1,1,1,1,1,1,1,1,1,1,1,1,1,1,1,1,1,1,1,1,1,1,1,1,1,1,1,1,1,1,1,1,
1,1,1,1,1,1,1,1,1,1,1,1,1,1,1,1,1,1,1,1,1,1,1,1,1,1,1,1,1,1,1,1,
1,1,1,1,1,1,1,1,1,1,1,78,112,115,102,1,72,98,110,102,116,1,1,1,1,1,1,1,1,1,1,1,
1,1,1,1,1,1,1,1,1,1,1,1,1,1,1,1,1,1,1,1,1,1,1,1,1,1,1,1,1,1,1,1,
1,1,1,1,1,1,1,1,1,1,1,1,1,1,1,1,1,1,1,1,1,1,1,1,1,1,1,1,1,1,1,1,
1,1,1,1,1,1,1,1,1,1,1,1,1,1,1,1,1,1,1,1,1,1,1,1,1,1,1,1,1,1,1,1,
1,1,1,1,1,1,1,1,1,1,73,98,116,102,102,1,67,112,118,111,100,102,1,1,1,1,1,1,1,1,1,1,
1,1,1,1,1,1,1,1,1,1,1,1,1,1,1,1,1,1,1,1,1,1,1,1,1,1,1,1,1,1,1,1,
1,1,1,1,1,1,1,1,74,104,109,112,112,1,72,98,115,98,104,102,1,84,98,109,102,1,1,1,1,1,1,1,
1,1,1,1,1,1,1,1,1,1,1,1,1,1,1,1,1,1,1,1,1,1,1,1,1,1,1,1,1,1,1,1,
1,1,1,1,1,1,1,1,1,1,69,102,100,108,116,120,98,99,99,102,115,1,1,1,1,1,1,1,1,1,1,1,
1,1,1,1,1,1,1,1,1,1,1,1,1,1,1,1,1,1,1,1,1,1,1,1,1,1,1,1,1,1,1,1,
1,1,1,1,1,1,1,1,1,1,1,1,1,1,1,1,1,1,1,1,1,1,1,1,1,1,1,1,1,1,1,1,
1,1,1,1,1,1,1,1,1,1,1,1,1,1,1,1,1,1,1,1,1,1,1,1,1,1,1,1,1,1,1,1,
1,1,1,1,1,1,1,1,1,1,1,1,1,1,1,1,1,1,1,1,1,1,1,1,1,1,1,1,1,1,1,1,
1,1,1,1,1,1,1,1,1,1,1,1,1,1,1,1,1,1,1,1,1,1,1,1,1,1,1,1,1,1,1,1,
1,1,1,1,1,1,1,1,1,1,1,1,1,1,1,1,1,1,1,1,1,1,1,1,1,1,1,1,1,1,1,1,
1,1,1,1,1,1,1,1,1,1,1,1,1,1,1,1,1,1,1,1,1,1,1,1,1,1,1,1,1,1,1,1,
1,1,1,1,1,1,1,1,1,1,1,1,1,1,1,1,1,1,1,1,1,1,1,1,1,1,1,1,1,1,1,1,
1,1,1,66,59,1,84,102,109,102,100,117,1,1,1,1,1,1,1,1,1,1,1,1,165,166,167,166,167,168,1,1,
1,1,1,1,1,1,1,1,1,1,1,1,1,1,1,1,1,1,1,1,1,1,1,1,183,184,183,184,183,184,1,1,
1,1,1,67,59,1,67,98,100,108,1,1,1,1,1,1,1,1,1,195,196,169,170,1,167,166,167,166,167,166,1,1,
1,1,1,1,1,1,1,1,1,1,1,1,1,1,1,1,1,1,1,211,212,185,186,1,183,184,183,184,183,184,1,1,
1,1,1,1,1,1,1,1,1,1,1,1,1,1,1,237,238,1,1,1,1,1,1,1,167,166,167,166,167,166,1,1,
1,1,1,1,1,1,1,1,1,1,1,1,1,1,1,253,254,1,1,1,1,1,1,1,183,184,183,184,183,184,1,1,
131,230,131,230,131,230,131,230,131,230,131,230,131,230,131,230,131,230,131,230,131,230,131,230,131,230,131,230,131,230,131,230,
247,248,247,248,247,248,247,248,247,248,247,248,247,248,247,248,247,248,247,248,247,248,247,248,247,248,247,248,247,248,247,248
</data>
 </layer>
</map>
